src/asset/24px/pencil.svg

<svg width="24" height="24" viewBox="0 0 24 24" fill="none" xmlns="http://www.w3.org/2000/svg">
<path fill-rule="evenodd" clip-rule="evenodd" d="M17.2929 2.29262C17.6834 1.90209 18.3166 1.90209 18.7071 2.29262L21.7071 5.29262C22.0976 5.68314 22.0976 6.31631 21.7071 6.70683C21.3166 7.09736 20.6834 7.09736 20.2929 6.70683L17.2929 3.70683C16.9024 3.31631 16.9024 2.68314 17.2929 2.29262ZM14.2929 5.29262C14.6834 4.90209 15.3166 4.90209 15.7071 5.29262L18.7071 8.29262C19.0976 8.68314 19.0976 9.31631 18.7071 9.70683L8.87868 19.5353C7.941 20.4729 6.66923 20.9997 5.34315 20.9997H4C3.44772 20.9997 3 20.552 3 19.9997V18.6566C3 17.3305 3.52678 16.0587 4.46447 15.121L14.2929 5.29262ZM15 7.41394L5.87868 16.5353C5.31607 17.0979 5 17.8609 5 18.6566V18.9997H5.34315C6.13879 18.9997 6.90186 18.6837 7.46447 18.121L16.5858 8.99973L15 7.41394Z" fill="#808080"/>
</svg>

<svg width="24" height="24" fill="none" xmlns="http://www.w3.org/2000/svg"><path fill-rule="evenodd" clip-rule="evenodd" d="M17.293 2.293a1 1 0 011.414 0l3 3a1 1 0 01-1.414 1.414l-3-3a1 1 0 010-1.414zm-3 3a1 1 0 011.414 0l3 3a1 1 0 010 1.414L8.88 19.535A5 5 0 015.343 21H4a1 1 0 01-1-1v-1.343a5 5 0 011.464-3.536l9.829-9.828zM15 7.413l-9.121 9.122A3 3 0 005 18.657V19h.343a3 3 0 002.121-.879L16.586 9 15 7.414z" fill="gray"/></svg>
